X: 517
T: Vlashko Petur Iliev
O: Bulgaria
M: 2/4
L: 1/8
Q: 1/4=180
P:ABBCCDD
K: Em
%%MIDI program 110
%%MIDI bassprog 32
%%MIDI chordprog 32
P:A
  "D"z4       |z4      |\
P:B
|:"Em"E4      |e2 e2   |"Bm"d^cde      |B4        |
  "Am"(3cdc BA|"Bm"GFGA|[1 B4          |(3dcBAG   :|[2"Em"E2B,2|E2z2|
P:C
|:"G"G4       |G4      |"Bm"BcBA       |GFGA      |G4          |\
  [1"G"G4     |GFEF    |G2z2           :|[2"Fm"=F4|"Em"E4      |z4  |
P:D
|:"G"B>cBG    |G>AGF   |"Bm"(3GFE(3^DEF|[1 EGB2   :|"Em"E2z2   |



